public/logos/laravel.svg

<svg clip-rule="evenodd" fill-rule="evenodd" stroke-linejoin="round" stroke-miterlimit="2" viewBox="0 0 50 52" xmlns="http://www.w3.org/2000/svg"><path d="m49.626 11.564c.018.068.028.138.028.209v10.972c0 .286-.154.552-.402.694l-9.209 5.302v10.509c0 .286-.152.55-.4.694l-19.223 11.066c-.044.025-.092.041-.14.058-.018.006-.035.017-.054.022-.134.035-.276.035-.41 0-.022-.006-.042-.018-.063-.026-.044-.016-.09-.03-.132-.054l-19.219-11.066c-.248-.143-.402-.408-.402-.694v-32.916c0-.072.01-.142.028-.21.006-.023.02-.044.028-.067.015-.042.029-.085.051-.124.015-.026.037-.047.055-.071.023-.032.044-.065.071-.093.023-.023.053-.04.079-.06.029-.024.055-.05.088-.069h.001l9.61-5.533c.247-.142.553-.142.8 0l9.61 5.533h.002c.032.02.059.045.088.068.026.02.055.038.078.06.028.029.048.062.072.094.017.024.04.045.054.071.023.04.036.082.052.124.008.023.022.044.028.068.018.068.028.138.028.209v20.559l8.008-4.611v-10.51c0-.07.01-.141.028-.208.007-.024.02-.045.028-.068.016-.042.03-.085.052-.124.015-.026.037-.047.054-.071.024-.032.044-.065.072-.093.023-.023.052-.04.078-.06.03-.024.056-.05.088-.069h.001l9.611-5.533c.247-.143.553-.143.8 0l9.61 5.533c.034.02.06.045.09.068.025.02.054.038.077.06.028.029.048.062.072.094.018.024.04.045.054.071.023.039.036.082.052.124.009.023.022.044.028.068zm-1.574 10.718v-9.124l-3.363 1.936-4.646 2.675v9.124l8.01-4.611zm-9.61 16.505v-9.13l-4.57 2.61-13.05 7.448v9.216zm-36.84-31.068v31.068l17.618 10.143v-9.214l-9.204-5.209-.003-.002-.004-.002c-.031-.018-.057-.044-.086-.066-.025-.02-.054-.036-.076-.058l-.002-.003c-.026-.025-.044-.056-.066-.084-.02-.027-.044-.05-.06-.078l-.001-.003c-.018-.03-.029-.066-.042-.1-.013-.03-.03-.058-.038-.09v-.001c-.01-.038-.012-.078-.016-.117-.004-.03-.012-.06-.012-.09v-21.483l-4.645-2.676-3.363-1.934zm8.81-5.994-8.007 4.609 8.005 4.609 8.006-4.61-8.006-4.608zm4.164 28.764 4.645-2.674v-20.096l-3.363 1.936-4.646 2.675v20.096zm24.667-23.325-8.006 4.609 8.006 4.609 8.005-4.61zm-.801 10.605-4.646-2.675-3.363-1.936v9.124l4.645 2.674 3.364 1.937zm-18.422 20.561 11.743-6.704 5.87-3.35-8-4.606-9.211 5.303-8.395 4.833z" fill="#495057"/></svg>

<?xml version="1.0" encoding="UTF-8" standalone="no"?>
<!DOCTYPE svg PUBLIC "-//W3C//DTD SVG 1.1//EN" "http://www.w3.org/Graphics/SVG/1.1/DTD/svg11.dtd">
<svg width="100%" height="100%" viewBox="0 0 50 52" version="1.1" xmlns="http://www.w3.org/2000/svg" xmlns:xlink="http://www.w3.org/1999/xlink" xml:space="preserve" xmlns:serif="http://www.serif.com/" style="fill-rule:evenodd;clip-rule:evenodd;stroke-linejoin:round;stroke-miterlimit:2;">
    <path d="M49.626,11.564C49.644,11.632 49.654,11.702 49.654,11.773L49.654,22.745C49.654,23.031 49.5,23.297 49.252,23.439L40.043,28.741L40.043,39.25C40.043,39.536 39.891,39.8 39.643,39.944L20.42,51.01C20.376,51.035 20.328,51.051 20.28,51.068C20.262,51.074 20.245,51.085 20.226,51.09C20.092,51.125 19.95,51.125 19.816,51.09C19.794,51.084 19.774,51.072 19.753,51.064C19.709,51.048 19.663,51.034 19.621,51.01L0.402,39.944C0.154,39.801 0,39.536 -0,39.25L0,6.334C0,6.262 0.01,6.192 0.028,6.124C0.034,6.101 0.048,6.08 0.056,6.057C0.071,6.015 0.085,5.972 0.107,5.933C0.122,5.907 0.144,5.886 0.162,5.862C0.185,5.83 0.206,5.797 0.233,5.769C0.256,5.746 0.286,5.729 0.312,5.709C0.341,5.685 0.367,5.659 0.4,5.64L0.401,5.64L10.011,0.107C10.258,-0.035 10.564,-0.035 10.811,0.107L20.421,5.64L20.423,5.64C20.455,5.66 20.482,5.685 20.511,5.708C20.537,5.728 20.566,5.746 20.589,5.768C20.617,5.797 20.637,5.83 20.661,5.862C20.678,5.886 20.701,5.907 20.715,5.933C20.738,5.973 20.751,6.015 20.767,6.057C20.775,6.08 20.789,6.101 20.795,6.125C20.813,6.193 20.823,6.263 20.823,6.334L20.823,26.893L28.831,22.282L28.831,11.772C28.831,11.702 28.841,11.631 28.859,11.564C28.866,11.54 28.879,11.519 28.887,11.496C28.903,11.454 28.917,11.411 28.939,11.372C28.954,11.346 28.976,11.325 28.993,11.301C29.017,11.269 29.037,11.236 29.065,11.208C29.088,11.185 29.117,11.168 29.143,11.148C29.173,11.124 29.199,11.098 29.231,11.079L29.232,11.079L38.843,5.546C39.09,5.403 39.396,5.403 39.643,5.546L49.253,11.079C49.287,11.099 49.313,11.124 49.343,11.147C49.368,11.167 49.397,11.185 49.42,11.207C49.448,11.236 49.468,11.269 49.492,11.301C49.51,11.325 49.532,11.346 49.546,11.372C49.569,11.411 49.582,11.454 49.598,11.496C49.607,11.519 49.62,11.54 49.626,11.564ZM48.052,22.282L48.052,13.158L44.689,15.094L40.043,17.769L40.043,26.893L48.053,22.282L48.052,22.282ZM38.442,38.787L38.442,29.657L33.872,32.267L20.822,39.715L20.822,48.931L38.442,38.787ZM1.602,7.719L1.602,38.787L19.22,48.93L19.22,39.716L10.016,34.507L10.013,34.505L10.009,34.503C9.978,34.485 9.952,34.459 9.923,34.437C9.898,34.417 9.869,34.401 9.847,34.379L9.845,34.376C9.819,34.351 9.801,34.32 9.779,34.292C9.759,34.265 9.735,34.242 9.719,34.214L9.718,34.211C9.7,34.181 9.689,34.145 9.676,34.111C9.663,34.081 9.646,34.053 9.638,34.021L9.638,34.02C9.628,33.982 9.626,33.942 9.622,33.903C9.618,33.873 9.61,33.843 9.61,33.813L9.61,12.33L4.965,9.654L1.602,7.72L1.602,7.719ZM10.412,1.725L2.405,6.334L10.41,10.943L18.416,6.333L10.41,1.725L10.412,1.725ZM14.576,30.489L19.221,27.815L19.221,7.719L15.858,9.655L11.212,12.33L11.212,32.426L14.576,30.489ZM39.243,7.164L31.237,11.773L39.243,16.382L47.248,11.772L39.243,7.164ZM38.442,17.769L33.796,15.094L30.433,13.158L30.433,22.282L35.078,24.956L38.442,26.893L38.442,17.769ZM20.02,38.33L31.763,31.626L37.633,28.276L29.633,23.67L20.422,28.973L12.027,33.806L20.02,38.33Z" style="fill:rgb(73,80,87);"/>
</svg>
